icons/view-right-new.svg

<?xml version="1.0" encoding="UTF-8" standalone="no"?>
<!-- Created with Inkscape (http://www.inkscape.org/) -->
<svg
   xmlns:dc="http://purl.org/dc/elements/1.1/"
   xmlns:cc="http://creativecommons.org/ns#"
   xmlns:rdf="http://www.w3.org/1999/02/22-rdf-syntax-ns#"
   xmlns:svg="http://www.w3.org/2000/svg"
   xmlns="http://www.w3.org/2000/svg"
   xmlns:sodipodi="http://sodipodi.sourceforge.net/DTD/sodipodi-0.dtd"
   xmlns:inkscape="http://www.inkscape.org/namespaces/inkscape"
   width="64px"
   height="64px"
   id="svg2383"
   sodipodi:version="0.32"
   inkscape:version="0.46+devel"
   sodipodi:docname="view-right-new.svg"
   inkscape:output_extension="org.inkscape.output.svg.inkscape"
   inkscape:export-filename="/home/rob/.kde4/share/icons/nmfnms/48x48/actions/view-right-close.png"
   inkscape:export-xdpi="67.5"
   inkscape:export-ydpi="67.5"
   version="1.1">
  <defs
     id="defs2385">
    <inkscape:perspective
       sodipodi:type="inkscape:persp3d"
       inkscape:vp_x="0 : 32 : 1"
       inkscape:vp_y="0 : 1000 : 0"
       inkscape:vp_z="64 : 32 : 1"
       inkscape:persp3d-origin="32 : 21.333333 : 1"
       id="perspective2391" />
  </defs>
  <sodipodi:namedview
     id="base"
     pagecolor="#ffffff"
     bordercolor="#666666"
     borderopacity="1.0"
     inkscape:pageopacity="0.0"
     inkscape:pageshadow="2"
     inkscape:zoom="4.4470387"
     inkscape:cx="-7.0755415"
     inkscape:cy="32.392799"
     inkscape:current-layer="layer1"
     showgrid="true"
     inkscape:document-units="px"
     inkscape:grid-bbox="true"
     inkscape:window-width="1580"
     inkscape:window-height="1009"
     inkscape:window-x="0"
     inkscape:window-y="26"
     inkscape:window-maximized="0">
    <inkscape:grid
       type="xygrid"
       id="grid3165"
       empspacing="4"
       visible="true"
       enabled="true"
       snapvisiblegridlinesonly="true" />
  </sodipodi:namedview>
  <metadata
     id="metadata2388">
    <rdf:RDF>
      <cc:Work
         rdf:about="">
        <dc:format>image/svg+xml</dc:format>
        <dc:type
           rdf:resource="http://purl.org/dc/dcmitype/StillImage" />
      </cc:Work>
    </rdf:RDF>
  </metadata>
  <g
     id="layer1"
     inkscape:label="Layer 1"
     inkscape:groupmode="layer">
    <g
       id="g3552"
       transform="translate(0.4275375,1.9080745)" />
    <g
       id="g2720"
       transform="matrix(1.1428571,0,0,1.1428571,-4.5714272,-4.5714272)">
      <rect
         ry="7.030241"
         rx="7.2379737"
         y="4"
         x="4"
         height="56"
         width="24"
         id="rect2819"
         style="opacity:1;fill:#000000;fill-opacity:1;fill-rule:nonzero;stroke:none" />
      <path
         id="rect2823"
         d="M 44.28125,4 C 39.698579,4 36,7.5801031 36,12.03125 L 36,24 l 4,0 c 0,-4.432 3.568,-8 8,-8 4.432,0 8,3.568 8,8 l 4,0 0,-11.96875 C 60,7.5801031 56.301421,4 51.71875,4 z M 36,40 36,51.96875 C 36,56.419897 39.698579,60 44.28125,60 l 7.4375,0 C 56.301421,60 60,56.419897 60,51.96875 L 60,40 56,40 c 0,4.432 -3.568,8 -8,8 -4.432,0 -8,-3.568 -8,-8 z"
         style="opacity:0.66000001;fill:#000000;fill-opacity:1;fill-rule:nonzero;stroke:none" />
      <rect
         ry="3.5"
         y="28"
         x="36"
         height="9"
         width="24"
         id="rect2833"
         style="opacity:1;fill:#000000;fill-opacity:1;fill-rule:nonzero;stroke:none"
         rx="3.5" />
      <rect
         transform="matrix(0,-1,1,0,0,0)"
         rx="3.5"
         style="opacity:1;fill:#000000;fill-opacity:1;fill-rule:nonzero;stroke:none"
         id="rect2718"
         width="24"
         height="9"
         x="-44.5"
         y="43.5"
         ry="3.5" />
    </g>
  </g>
</svg>

<?xml version="1.0" encoding="UTF-8" standalone="no"?>
<!-- Created with Inkscape (http://www.inkscape.org/) -->

<svg
   xmlns:dc="http://purl.org/dc/elements/1.1/"
   xmlns:cc="http://creativecommons.org/ns#"
   xmlns:rdf="http://www.w3.org/1999/02/22-rdf-syntax-ns#"
   xmlns:svg="http://www.w3.org/2000/svg"
   xmlns="http://www.w3.org/2000/svg"
   xmlns:sodipodi="http://sodipodi.sourceforge.net/DTD/sodipodi-0.dtd"
   xmlns:inkscape="http://www.inkscape.org/namespaces/inkscape"
   width="64px"
   height="64px"
   id="svg2383"
   sodipodi:version="0.32"
   inkscape:version="0.47pre2 r22153"
   sodipodi:docname="view-right-new.svg"
   inkscape:output_extension="org.inkscape.output.svg.inkscape"
   inkscape:export-filename="/home/rob/.kde4/share/icons/nmfnms/48x48/actions/view-right-close.png"
   inkscape:export-xdpi="67.5"
   inkscape:export-ydpi="67.5"
   version="1.1">
  <defs
     id="defs2385">
    <inkscape:perspective
       sodipodi:type="inkscape:persp3d"
       inkscape:vp_x="0 : 32 : 1"
       inkscape:vp_y="0 : 1000 : 0"
       inkscape:vp_z="64 : 32 : 1"
       inkscape:persp3d-origin="32 : 21.333333 : 1"
       id="perspective2391" />
  </defs>
  <sodipodi:namedview
     id="base"
     pagecolor="#ffffff"
     bordercolor="#666666"
     borderopacity="1.0"
     inkscape:pageopacity="0.0"
     inkscape:pageshadow="2"
     inkscape:zoom="12.578125"
     inkscape:cx="19.796273"
     inkscape:cy="32.392799"
     inkscape:current-layer="layer1"
     showgrid="true"
     inkscape:document-units="px"
     inkscape:grid-bbox="true"
     inkscape:window-width="1678"
     inkscape:window-height="1009"
     inkscape:window-x="182"
     inkscape:window-y="56"
     inkscape:window-maximized="0">
    <inkscape:grid
       type="xygrid"
       id="grid3165"
       empspacing="4"
       visible="true"
       enabled="true"
       snapvisiblegridlinesonly="true" />
  </sodipodi:namedview>
  <metadata
     id="metadata2388">
    <rdf:RDF>
      <cc:Work
         rdf:about="">
        <dc:format>image/svg+xml</dc:format>
        <dc:type
           rdf:resource="http://purl.org/dc/dcmitype/StillImage" />
      </cc:Work>
    </rdf:RDF>
  </metadata>
  <g
     id="layer1"
     inkscape:label="Layer 1"
     inkscape:groupmode="layer">
    <g
       id="g3552"
       transform="translate(0.4275375,1.9080745)" />
    <rect
       style="opacity:0.66000001;fill:#000000;fill-opacity:1;fill-rule:nonzero;stroke:none"
       id="rect2819"
       width="24"
       height="56"
       x="4"
       y="4"
       rx="8.2719698"
       ry="8.0345612" />
    <path
       style="opacity:0.43999998;fill:#000000;fill-opacity:1;fill-rule:nonzero;stroke:none"
       d="M 44.28125 4 C 39.698579 4 36 7.5801031 36 12.03125 L 36 24 L 40 24 C 40 19.568 43.568 16 48 16 C 52.432 16 56 19.568 56 24 L 60 24 L 60 12.03125 C 60 7.5801031 56.301421 4 51.71875 4 L 44.28125 4 z M 36 40 L 36 51.96875 C 36 56.419897 39.698579 60 44.28125 60 L 51.71875 60 C 56.301421 60 60 56.419897 60 51.96875 L 60 40 L 56 40 C 56 44.432 52.432 48 48 48 C 43.568 48 40 44.432 40 40 L 36 40 z "
       id="rect2823" />
    <path
       style="opacity:0.66000001;fill:#000000;fill-opacity:1;fill-rule:nonzero;stroke:none"
       d="M 48 20 C 45.784 20 44 21.784 44 24 L 44 28 L 52 28 L 52 24 C 52 21.784 50.216 20 48 20 z M 44 37 L 44 40 C 44 42.216 45.784 44 48 44 C 50.216 44 52 42.216 52 40 L 52 37 L 44 37 z "
       id="rect2831" />
    <rect
       style="opacity:0.66000001;fill:#000000;fill-opacity:1;fill-rule:nonzero;stroke:none"
       id="rect2833"
       width="24"
       height="9"
       x="36"
       y="28"
       ry="4" />
  </g>
</svg>
